X:46
T:46 What A Beau My Granny Was
C:Alymore MS
I:abc2nwc
M:2/4
L:1/16
K:C
f4|:e3cd3B|c3AG3F|E2G2c2e2|d2G2 G4|e3cd3B|c3AG3F|E2G2A2B2|c2C2 C4:|
G2E2G2C2|G2F2A2D2|G2E2G2c2|e2d2G2G2|F2E2G2c2|e2f2d2c2|B2c2A2G2|F2E2C2C2:|

